resources/svg/unlock-circle.svg

<svg xmlns="http://www.w3.org/2000/svg" viewBox="0 0 15 15" fill="currentColor"><path fill-rule="evenodd" clip-rule="evenodd" d="M0 7.5C0 3.35786 3.35786 0 7.5 0C11.6421 0 15 3.35786 15 7.5C15 11.6421 11.6421 15 7.5 15C3.35786 15 0 11.6421 0 7.5ZM7.62132 4C6.72589 4 6 4.72589 6 5.62132V6H9.5C10.3284 6 11 6.67157 11 7.5V10.5C11 11.3284 10.3284 12 9.5 12H5.5C4.67157 12 4 11.3284 4 10.5V7.5C4 6.84689 4.4174 6.29127 5 6.08535V5.62132C5 4.1736 6.1736 3 7.62132 3C8.31654 3 8.98328 3.27617 9.47487 3.76777L9.85355 4.14645L9.14645 4.85355L8.76777 4.47487C8.46371 4.17082 8.05132 4 7.62132 4Z" fill="black"/></svg>

<svg xmlns="http://www.w3.org/2000/svg" viewBox="0 0 15 15" fill="currentColor"><path fill-rule="evenodd" clip-rule="evenodd" d="M0 7.5a7.5 7.5 0 1115 0 7.5 7.5 0 01-15 0zM7.621 4C6.726 4 6 4.726 6 5.621V6h3.5A1.5 1.5 0 0111 7.5v3A1.5 1.5 0 019.5 12h-4A1.5 1.5 0 014 10.5v-3a1.5 1.5 0 011-1.415v-.464a2.621 2.621 0 014.475-1.853l.379.378-.708.708-.378-.38A1.621 1.621 0 007.62 4z" fill="currentColor"/></svg>
